boxicons/svg/regular/bx-alarm-add.svg

<svg xmlns="http://www.w3.org/2000/svg" width="24" height="24" viewBox="0 0 24 24"><path d="M12 4c-4.879 0-9 4.121-9 9s4.121 9 9 9 9-4.121 9-9-4.121-9-9-9zm0 16c-3.794 0-7-3.206-7-7s3.206-7 7-7 7 3.206 7 7-3.206 7-7 7z"/><path d="M13 8h-2v4H7v2h4v4h2v-4h4v-2h-4zm7.292-1.292-3.01-3 1.412-1.417 3.01 3zM5.282 2.294 6.7 3.706l-2.99 3-1.417-1.413z"/></svg>

<svg xmlns="http://www.w3.org/2000/svg" width="24" height="24" viewBox="0 0 24 24"><path d="M12,4c-4.879,0-9,4.121-9,9s4.121,9,9,9s9-4.121,9-9S16.879,4,12,4z M12,20c-3.794,0-7-3.206-7-7s3.206-7,7-7s7,3.206,7,7 S15.794,20,12,20z"/><path d="M13 8L11 8 11 12 7 12 7 14 11 14 11 18 13 18 13 14 17 14 17 12 13 12z"/><path transform="rotate(-135.093 19.494 4.5)" d="M17.37 3.5H21.62V5.5H17.37z"/><path transform="rotate(44.919 4.495 4.5)" d="M3.495 2.382H5.495V6.617000000000001H3.495z"/></svg>
